img/buyitback/shield-check.svg

<svg width="24" height="24" viewBox="0 0 24 24" fill="none" xmlns="http://www.w3.org/2000/svg">
<path d="M16.5 9.56052C16.7929 9.26762 16.7929 8.79275 16.5 8.49986C16.2071 8.20696 15.7322 8.20696 15.4393 8.49986L11 12.9392L9.06066 10.9999C8.76776 10.707 8.29289 10.707 8 10.9999C7.7071 11.2928 7.7071 11.7676 8 12.0605L10.4697 14.5302C10.7626 14.8231 11.2374 14.8231 11.5303 14.5302L16.5 9.56052Z" fill="#2A179C"/>
<path fill-rule="evenodd" clip-rule="evenodd" d="M4.18772 4.47197C3.46547 4.79297 3 5.50921 3 6.29959V12.9999C3 18.8765 9.34312 21.934 11.379 22.7639C11.7798 22.9273 12.2203 22.9273 12.621 22.7639C14.6569 21.934 21 18.8765 21 12.9999V6.29959C21 5.50921 20.5345 4.79297 19.8123 4.47197L12.8123 1.36086C12.2951 1.13102 11.7049 1.13102 11.1877 1.36086L4.18772 4.47197ZM16.5888 18.6432C18.2472 17.199 19.5 15.3432 19.5 12.9999V6.29959C19.5 6.102 19.3836 5.92293 19.2031 5.84268L12.2031 2.73157C12.0738 2.67411 11.9262 2.67411 11.7969 2.73157L4.79693 5.84268C4.61637 5.92293 4.5 6.102 4.5 6.29959V12.9999C4.5 15.3432 5.75282 17.199 7.41118 18.6432C9.07349 20.0909 10.9967 20.9882 11.9453 21.3749C11.983 21.3903 12.017 21.3903 12.0547 21.3749C13.0033 20.9882 14.9265 20.0909 16.5888 18.6432Z" fill="#2A179C"/>
</svg>

<svg width="24" height="24" fill="none" xmlns="http://www.w3.org/2000/svg"><path d="M16.5 9.56a.75.75 0 1 0-1.06-1.06L11 12.94 9.06 11A.75.75 0 0 0 8 12.06l2.47 2.47a.75.75 0 0 0 1.06 0l4.97-4.97Z" fill="#2A179C"/><path fill-rule="evenodd" clip-rule="evenodd" d="M4.188 4.472A2 2 0 0 0 3 6.3V13c0 5.877 6.343 8.934 8.379 9.764.4.163.841.163 1.242 0C14.657 21.934 21 18.877 21 13V6.3a2 2 0 0 0-1.188-1.828l-7-3.111a2 2 0 0 0-1.624 0l-7 3.111Zm12.4 14.171C18.249 17.2 19.5 15.343 19.5 13V6.3a.5.5 0 0 0-.297-.457l-7-3.111a.5.5 0 0 0-.406 0l-7 3.11A.5.5 0 0 0 4.5 6.3V13c0 2.343 1.253 4.199 2.911 5.643 1.662 1.448 3.586 2.345 4.534 2.732a.135.135 0 0 0 .11 0c.948-.387 2.872-1.284 4.534-2.732Z" fill="#2A179C"/></svg>
